src/assets/logos/v2/mystery2.svg

<svg xmlns="http://www.w3.org/2000/svg" width="578" height="281" fill="none" viewBox="0 0 578 281"><path fill="#fff" d="M146.968 91.848v15.429h-32.945V91.848H93.766V30.89h21.47v14.673h50.257l-15.459-13.932 15.459-13.878h-30.692V3.026H86.903v88.809H64.459v15.428H31.447V91.835H1.554v36.988h.054l23.602 23.798v49.715l63.985 38.074 64.051-38.127v-49.649l23.536-23.798h.053V91.848z"/><path fill="url(#a)" d="m89.207 257.931 64.678-39.398v22.698l-64.651 39.386-64.704-39.386v-22.659z"/><path fill="url(#b)" d="m123.18 167.745-33.998 20.236-33.945-20.196v16.355l33.945 20.196 33.998-20.235z"/><path fill="url(#c)" d="M123.18 141.404 89.182 161.64l-33.945-20.196V157.8l33.945 20.195 33.998-20.235z"/><path fill="#fff" d="M215.284 90.974h33.571c1.599 0 3.052.397 4.385 1.192a9.4 9.4 0 0 1 3.211 3.165c.814 1.324 1.227 2.794 1.227 4.41v8.396c0 .53-.04 1.02-.12 1.497-.08.463-.2.927-.373 1.363a12.2 12.2 0 0 1 1.599 2.768c.413.994.613 2 .613 3.02v9.257c0 1.629-.413 3.099-1.226 4.41a9.4 9.4 0 0 1-3.212 3.165c-1.32.795-2.812 1.192-4.438 1.192h-35.224V90.974zm9.182 17.11h23.896c.08 0 .16-.026.24-.093.08-.066.12-.132.12-.211v-7.615a.34.34 0 0 0-.12-.279.37.37 0 0 0-.24-.092h-23.896c-.12 0-.213.026-.28.093-.067.066-.093.159-.093.278v7.615c0 .079.026.159.093.211.067.053.16.093.28.093m0 17.905h25.615c.12 0 .213-.027.28-.093s.093-.145.093-.278v-8.343a.36.36 0 0 0-.093-.239c-.067-.079-.147-.119-.28-.119h-25.615q-.18 0-.28.119a.36.36 0 0 0-.093.239v8.343c0 .119.026.212.093.278.067.053.16.093.28.093m41.661 8.82V90.908h8.823v35.068h35.291v8.833zm51.938-1.178a9.1 9.1 0 0 1-3.185-3.165q-1.2-1.987-1.2-4.411V90.987h8.822v34.645c0 .119.028.212.093.278.066.066.162.093.28.093h25.615c.122 0 .215-.027.28-.093.069-.066.093-.146.093-.278V90.987h8.944v35.068c0 1.629-.413 3.099-1.228 4.411a9.4 9.4 0 0 1-3.21 3.165c-1.333.794-2.787 1.192-4.384 1.192h-26.47q-2.475-.02-4.45-1.192m46.591 1.178V90.974h40.69v8.833h-31.734v8.648h25.55v8.887h-25.55v8.647h31.734v8.833h-40.69zM223.92 190.947q-2.458 0-4.438-1.192a9.2 9.2 0 0 1-3.185-3.165q-1.2-1.987-1.199-4.41v-26.301q0-2.443 1.199-4.41a9.1 9.1 0 0 1 3.185-3.165q2-1.192 4.438-1.192h26.415q2.459 0 4.438 1.192a9.4 9.4 0 0 1 3.212 3.165c.813 1.324 1.226 2.794 1.226 4.41v3.774h-8.943v-3.35c0-.12-.026-.212-.093-.279-.067-.066-.16-.092-.28-.092H224.28c-.12 0-.213.026-.28.092-.066.067-.093.159-.093.279v25.453c0 .119.027.212.093.278.067.066.16.093.28.093h25.615c.12 0 .213-.027.28-.093s.093-.159.093-.278v-7.178h-9.742v-8.833h18.685v16.435c0 1.629-.413 3.099-1.226 4.41a9.5 9.5 0 0 1-3.212 3.165q-2 1.192-4.438 1.192zm46.286-1.192a9.1 9.1 0 0 1-3.186-3.165q-1.199-1.987-1.199-4.41v-35.068h8.823v34.644c0 .119.026.212.093.278s.16.093.28.093h25.615c.12 0 .213-.027.28-.093s.093-.159.093-.278v-34.644h8.943v35.068c0 1.629-.413 3.099-1.226 4.41a9.5 9.5 0 0 1-3.212 3.165c-1.333.794-2.786 1.192-4.385 1.192h-26.468c-1.639 0-3.118-.398-4.451-1.192m46.591-33.876q.001-2.443 1.199-4.41a9.1 9.1 0 0 1 3.186-3.165q1.999-1.192 4.44-1.192h26.402q2.456 0 4.437 1.192a9.36 9.36 0 0 1 3.21 3.165c.815 1.324 1.228 2.794 1.228 4.41v35.068h-8.944v-14.435h-26.348v14.435h-8.823v-35.068zm35.171 11.879v-11.442c0-.119-.025-.212-.093-.278-.066-.066-.159-.093-.28-.093H325.98c-.118 0-.212.027-.28.093-.065.066-.093.159-.093.278v11.442zm15.926 23.189v-43.782h35.239q2.457 0 4.438 1.192a9.2 9.2 0 0 1 3.21 3.192 8.27 8.27 0 0 1 1.227 4.383v11.575a8.15 8.15 0 0 1-1.227 4.357 9.4 9.4 0 0 1-3.21 3.165q-2 1.192-4.438 1.192l-26.417.053v14.673zm9.195-23.56h25.615c.122 0 .215-.026.28-.092a.28.28 0 0 0 .093-.212v-10.78c0-.119-.025-.212-.093-.278-.065-.066-.158-.093-.28-.093h-25.615c-.118 0-.211.027-.28.093-.065.066-.093.159-.093.278v10.78c0 .079.028.159.093.212a.45.45 0 0 0 .28.092m25.497 23.56-13.048-15.468h11.582l10.783 12.727v2.741zm15.979 0v-43.835h35.236q2.46 0 4.441 1.192a9.4 9.4 0 0 1 3.21 3.165c.814 1.324 1.228 2.794 1.228 4.41v26.301c0 1.629-.414 3.099-1.228 4.41a9.4 9.4 0 0 1-3.21 3.165q-1.999 1.192-4.441 1.192zm9.13-8.82h25.668c.121 0 .215-.027.28-.093s.093-.159.093-.278v-25.453c0-.12-.028-.212-.093-.279-.065-.066-.159-.092-.28-.092h-25.668a.36.36 0 0 0-.239.092.34.34 0 0 0-.121.279v25.453q0 .179.121.278a.44.44 0 0 0 .239.093m40.634 8.82v-43.835h8.757v43.835zm14.447-35.068q0-2.443 1.2-4.41a9.1 9.1 0 0 1 3.185-3.165q2-1.192 4.437-1.192H518q2.462 0 4.437 1.192a9.4 9.4 0 0 1 3.214 3.165c.814 1.324 1.227 2.794 1.227 4.41v35.068h-8.943v-14.435h-26.337v14.435h-8.822zm35.171 11.879v-11.442c0-.119-.025-.212-.093-.278-.065-.066-.159-.093-.28-.093h-25.615c-.118 0-.215.027-.28.093s-.093.159-.093.278v11.442zm15.939 23.189v-43.835h9.369l25.801 30.565v-30.565H578v43.835h-9.369l-25.923-30.685v30.685zm-318.669 56.138V203.25h40.689v8.833h-31.732v8.648h25.548v8.886h-25.548v17.468zm48.431-1.192a9.1 9.1 0 0 1-3.185-3.165q-1.199-1.987-1.199-4.41V203.25h8.822v34.644c0 .119.027.212.094.278.066.067.16.093.28.093h25.615c.12 0 .213-.026.28-.093.066-.066.093-.159.093-.278V203.25h8.943v35.068c0 1.629-.414 3.099-1.227 4.41a9.5 9.5 0 0 1-3.212 3.165c-1.332.795-2.785 1.192-4.384 1.192H268.1c-1.64 0-3.119-.397-4.452-1.192m61.918 1.192v-35.002h-17.644v-8.833h44.114v8.833h-17.579v35.002zm35.317-1.192a9.1 9.1 0 0 1-3.185-3.165q-1.199-1.987-1.199-4.41V203.25h8.825v34.644c0 .119.025.212.093.278.065.067.159.093.28.093h25.615c.118 0 .212-.026.28-.093.065-.066.093-.159.093-.278V203.25h8.94v35.068c0 1.629-.413 3.099-1.224 4.41a9.5 9.5 0 0 1-3.213 3.165c-1.333.795-2.784 1.192-4.385 1.192h-26.467c-1.64 0-3.12-.397-4.453-1.192m46.473 1.192v-43.782h35.24q2.456 0 4.437 1.191a9.2 9.2 0 0 1 3.21 3.192 8.3 8.3 0 0 1 1.228 4.384v11.561a8.14 8.14 0 0 1-1.228 4.357 9.4 9.4 0 0 1-3.21 3.165q-2 1.192-4.437 1.192l-26.417.066v14.674zm9.196-23.56h25.615c.121 0 .214-.026.28-.093a.28.28 0 0 0 .093-.212v-10.78c0-.119-.025-.212-.093-.278-.066-.066-.159-.092-.28-.092h-25.615c-.119 0-.212.026-.28.092-.065.066-.093.159-.093.278v10.78c0 .08.028.146.093.212.068.067.146.093.28.093m25.481 23.56-13.045-15.469h11.582l10.78 12.727v2.742zm15.995 0V203.25h40.69v8.833h-31.734v8.648h25.55v8.886h-25.55v8.648h31.734v8.833h-40.69zm55.454 0a8.5 8.5 0 0 1-4.41-1.192c-1.346-.795-2.411-1.841-3.185-3.165q-1.16-1.987-1.159-4.41v-3.708h8.822v3.284c0 .119.025.212.093.278a.28.28 0 0 0 .211.093h25.672a.37.37 0 0 0 .239-.093.35.35 0 0 0 .118-.278v-7.972c0-.08-.04-.146-.118-.212a.37.37 0 0 0-.239-.093h-26.044a8.5 8.5 0 0 1-4.41-1.192 8.74 8.74 0 0 1-3.185-3.192c-.774-1.337-1.159-2.794-1.159-4.383v-8.833q-.001-2.443 1.159-4.41c.774-1.324 1.839-2.371 3.185-3.165a8.5 8.5 0 0 1 4.41-1.192h26.535c1.6 0 3.051.397 4.384 1.192a9.4 9.4 0 0 1 3.214 3.165c.811 1.324 1.224 2.794 1.224 4.41v3.708h-8.94v-3.284a.34.34 0 0 0-.122-.278.36.36 0 0 0-.239-.093H513.87a.26.26 0 0 0-.214.093.44.44 0 0 0-.094.278v7.972c0 .08.028.159.094.212.068.053.133.093.214.093h26.159c1.601 0 3.055.397 4.385 1.192a9.24 9.24 0 0 1 3.213 3.191 8.3 8.3 0 0 1 1.227 4.384v8.833c0 1.629-.413 3.099-1.227 4.41a9.5 9.5 0 0 1-3.213 3.165c-1.33.795-2.784 1.192-4.385 1.192z"/><defs><linearGradient id="a" x1="89.207" x2="89.207" y1="280.616" y2="218.535" gradientUnits="userSpaceOnUse"><stop offset=".088" stop-color="#074783"/><stop offset=".922" stop-color="#2d81d6"/></linearGradient><linearGradient id="b" x1="55.234" x2="123.181" y1="186.039" y2="186.039" gradientUnits="userSpaceOnUse"><stop offset=".194" stop-color="#074783"/><stop offset=".922" stop-color="#2d81d6"/></linearGradient><linearGradient id="c" x1="55.234" x2="123.181" y1="159.701" y2="159.701" gradientUnits="userSpaceOnUse"><stop offset=".194" stop-color="#074783"/><stop offset=".922" stop-color="#2d81d6"/></linearGradient></defs></svg>

<svg width="578" height="281" viewBox="0 0 578 281" fill="none" xmlns="http://www.w3.org/2000/svg">
<path d="M146.968 91.8481V107.277H114.023V91.8481H93.766V30.8897H115.236V45.5631H165.493L150.034 31.6314L165.493 17.7526H134.801V3.02612H86.9025V91.8348H64.4593V107.263H31.4474V91.8348H1.55423V128.823H1.60754L25.2102 152.621V202.336L89.1946 240.41L153.246 202.283V152.634L176.782 128.836H176.835V91.8481H146.968Z" fill="white"/>
<path d="M89.2074 257.931L153.885 218.533V241.231L89.2339 280.617L24.5299 241.231V218.572L89.2074 257.931Z" fill="url(#paint0_linear_1_120)"/>
<path d="M123.18 167.745L89.1817 187.981L55.2369 167.785V184.14L89.1817 204.336L123.18 184.101V167.745Z" fill="url(#paint1_linear_1_120)"/>
<path d="M123.18 141.404L89.1817 161.64L55.2369 141.444V157.8L89.1817 177.995L123.18 157.76V141.404Z" fill="url(#paint2_linear_1_120)"/>
<path d="M215.284 90.9739H248.855C250.454 90.9739 251.907 91.3713 253.24 92.1658C254.572 92.9603 255.639 94.0198 256.451 95.3309C257.265 96.6553 257.678 98.1252 257.678 99.7408V108.137C257.678 108.667 257.638 109.157 257.558 109.634C257.478 110.097 257.358 110.561 257.185 110.997C257.838 111.845 258.371 112.772 258.784 113.765C259.197 114.759 259.397 115.765 259.397 116.785V126.042C259.397 127.671 258.984 129.141 258.171 130.452C257.358 131.776 256.278 132.822 254.959 133.617C253.639 134.412 252.147 134.809 250.521 134.809H215.297V90.9739H215.284ZM224.466 108.084H248.362C248.442 108.084 248.522 108.058 248.602 107.991C248.682 107.925 248.722 107.859 248.722 107.78V100.165C248.722 100.046 248.682 99.9529 248.602 99.8865C248.522 99.8204 248.442 99.7939 248.362 99.7939H224.466C224.346 99.7939 224.253 99.8204 224.186 99.8865C224.119 99.9529 224.093 100.046 224.093 100.165V107.78C224.093 107.859 224.119 107.939 224.186 107.991C224.253 108.044 224.346 108.084 224.466 108.084ZM224.466 125.989H250.081C250.201 125.989 250.294 125.962 250.361 125.896C250.428 125.83 250.454 125.751 250.454 125.618V117.275C250.454 117.195 250.428 117.116 250.361 117.036C250.294 116.957 250.214 116.917 250.081 116.917H224.466C224.346 116.917 224.253 116.957 224.186 117.036C224.119 117.116 224.093 117.195 224.093 117.275V125.618C224.093 125.737 224.119 125.83 224.186 125.896C224.253 125.949 224.346 125.989 224.466 125.989Z" fill="white"/>
<path d="M266.127 134.809V90.9077H274.95V125.976H310.241V134.809H266.127Z" fill="white"/>
<path d="M318.065 133.631C316.732 132.836 315.678 131.79 314.88 130.466C314.081 129.141 313.68 127.671 313.68 126.055V90.9875H322.502V125.632C322.502 125.751 322.53 125.844 322.595 125.91C322.661 125.976 322.757 126.003 322.875 126.003H348.49C348.612 126.003 348.705 125.976 348.77 125.91C348.839 125.844 348.863 125.764 348.863 125.632V90.9875H357.807V126.055C357.807 127.684 357.394 129.154 356.579 130.466C355.768 131.79 354.687 132.836 353.369 133.631C352.036 134.425 350.582 134.823 348.985 134.823H322.515C320.865 134.809 319.382 134.412 318.065 133.631Z" fill="white"/>
<path d="M364.656 134.809V90.9741H405.346V99.8074H373.612V108.455H399.162V117.342H373.612V125.989H405.346V134.822H364.656V134.809Z" fill="white"/>
<path d="M223.92 190.947C222.281 190.947 220.802 190.549 219.482 189.755C218.163 188.96 217.097 187.914 216.297 186.59C215.497 185.265 215.098 183.796 215.098 182.18V155.879C215.098 154.25 215.497 152.78 216.297 151.469C217.097 150.145 218.15 149.098 219.482 148.304C220.815 147.509 222.294 147.112 223.92 147.112H250.335C251.974 147.112 253.454 147.509 254.773 148.304C256.106 149.098 257.172 150.158 257.985 151.469C258.798 152.793 259.211 154.263 259.211 155.879V159.653H250.268V156.303C250.268 156.183 250.242 156.091 250.175 156.024C250.108 155.958 250.015 155.932 249.895 155.932H224.28C224.16 155.932 224.067 155.958 224 156.024C223.934 156.091 223.907 156.183 223.907 156.303V181.756C223.907 181.875 223.934 181.968 224 182.034C224.067 182.1 224.16 182.127 224.28 182.127H249.895C250.015 182.127 250.108 182.1 250.175 182.034C250.242 181.968 250.268 181.875 250.268 181.756V174.578H240.526V165.745H259.211V182.18C259.211 183.809 258.798 185.279 257.985 186.59C257.172 187.901 256.093 188.96 254.773 189.755C253.44 190.549 251.961 190.947 250.335 190.947H223.92Z" fill="white"/>
<path d="M270.206 189.755C268.873 188.96 267.82 187.914 267.02 186.59C266.221 185.265 265.821 183.796 265.821 182.18V147.112H274.644V181.756C274.644 181.875 274.67 181.968 274.737 182.034C274.804 182.1 274.897 182.127 275.017 182.127H300.632C300.752 182.127 300.845 182.1 300.912 182.034C300.979 181.968 301.005 181.875 301.005 181.756V147.112H309.948V182.18C309.948 183.809 309.535 185.279 308.722 186.59C307.909 187.901 306.829 188.96 305.51 189.755C304.177 190.549 302.724 190.947 301.125 190.947H274.657C273.018 190.947 271.539 190.549 270.206 189.755Z" fill="white"/>
<path d="M316.797 155.879C316.797 154.25 317.198 152.78 317.996 151.469C318.798 150.145 319.852 149.098 321.182 148.304C322.515 147.509 323.994 147.112 325.622 147.112H352.024C353.661 147.112 355.141 147.509 356.461 148.304C357.794 149.098 358.86 150.158 359.671 151.469C360.486 152.793 360.899 154.263 360.899 155.879V190.947H351.955V176.512H325.607V190.947H316.784V155.879H316.797ZM351.968 167.758V156.316C351.968 156.197 351.943 156.104 351.875 156.038C351.809 155.972 351.716 155.945 351.595 155.945H325.98C325.862 155.945 325.768 155.972 325.7 156.038C325.635 156.104 325.607 156.197 325.607 156.316V167.758H351.968Z" fill="white"/>
<path d="M367.894 190.947V147.165H403.133C404.771 147.165 406.25 147.562 407.571 148.357C408.904 149.152 409.97 150.211 410.781 151.549C411.595 152.886 412.008 154.343 412.008 155.932V167.507C412.008 169.096 411.595 170.539 410.781 171.864C409.97 173.188 408.888 174.234 407.571 175.029C406.238 175.823 404.758 176.221 403.133 176.221L376.716 176.274V190.947H367.894ZM377.089 167.387H402.704C402.826 167.387 402.919 167.361 402.984 167.295C403.052 167.229 403.077 167.162 403.077 167.083V156.303C403.077 156.184 403.052 156.091 402.984 156.025C402.919 155.959 402.826 155.932 402.704 155.932H377.089C376.971 155.932 376.878 155.959 376.809 156.025C376.744 156.091 376.716 156.184 376.716 156.303V167.083C376.716 167.162 376.744 167.242 376.809 167.295C376.878 167.348 376.971 167.387 377.089 167.387ZM402.586 190.947L389.538 175.479H401.12L411.903 188.206V190.947H402.586Z" fill="white"/>
<path d="M418.565 190.947V147.112H453.801C455.442 147.112 456.921 147.509 458.242 148.304C459.572 149.098 460.641 150.158 461.452 151.469C462.266 152.793 462.68 154.263 462.68 155.879V182.18C462.68 183.809 462.266 185.279 461.452 186.59C460.641 187.914 459.56 188.96 458.242 189.755C456.909 190.549 455.43 190.947 453.801 190.947H418.565ZM427.695 182.127H453.363C453.484 182.127 453.578 182.1 453.643 182.034C453.708 181.968 453.736 181.875 453.736 181.756V156.303C453.736 156.183 453.708 156.091 453.643 156.024C453.578 155.958 453.484 155.932 453.363 155.932H427.695C427.614 155.932 427.534 155.958 427.456 156.024C427.375 156.091 427.335 156.183 427.335 156.303V181.756C427.335 181.875 427.375 181.968 427.456 182.034C427.534 182.087 427.614 182.127 427.695 182.127Z" fill="white"/>
<path d="M468.329 190.947V147.112H477.086V190.947H468.329Z" fill="white"/>
<path d="M482.776 155.879C482.776 154.25 483.177 152.78 483.976 151.469C484.774 150.145 485.828 149.098 487.161 148.304C488.494 147.509 489.973 147.112 491.598 147.112H518C519.641 147.112 521.12 147.509 522.437 148.304C523.771 149.098 524.836 150.158 525.651 151.469C526.465 152.793 526.878 154.263 526.878 155.879V190.947H517.935V176.512H491.598V190.947H482.776V155.879ZM517.947 167.758V156.316C517.947 156.197 517.922 156.104 517.854 156.038C517.789 155.972 517.695 155.945 517.574 155.945H491.959C491.841 155.945 491.744 155.972 491.679 156.038C491.614 156.104 491.586 156.197 491.586 156.316V167.758H517.947Z" fill="white"/>
<path d="M533.886 190.947V147.112H543.255L569.056 177.677V147.112H578V190.947H568.631L542.708 160.262V190.947H533.886Z" fill="white"/>
<path d="M215.217 247.085V203.25H255.906V212.083H224.174V220.731H249.722V229.617H224.174V247.085H215.217Z" fill="white"/>
<path d="M263.648 245.893C262.316 245.098 261.263 244.052 260.463 242.728C259.664 241.404 259.264 239.933 259.264 238.318V203.25H268.086V237.894C268.086 238.013 268.113 238.106 268.18 238.172C268.246 238.239 268.34 238.265 268.46 238.265H294.075C294.195 238.265 294.288 238.239 294.355 238.172C294.421 238.106 294.448 238.013 294.448 237.894V203.25H303.391V238.318C303.391 239.947 302.977 241.417 302.164 242.728C301.351 244.039 300.272 245.098 298.952 245.893C297.62 246.688 296.167 247.085 294.568 247.085H268.1C266.46 247.085 264.981 246.688 263.648 245.893Z" fill="white"/>
<path d="M325.566 247.085V212.083H307.922V203.25H352.036V212.083H334.457V247.085H325.566Z" fill="white"/>
<path d="M360.883 245.893C359.553 245.098 358.5 244.052 357.698 242.728C356.899 241.404 356.499 239.933 356.499 238.318V203.25H365.324V237.894C365.324 238.013 365.349 238.106 365.417 238.172C365.482 238.239 365.576 238.265 365.697 238.265H391.312C391.43 238.265 391.524 238.239 391.592 238.172C391.657 238.106 391.685 238.013 391.685 237.894V203.25H400.625V238.318C400.625 239.947 400.212 241.417 399.401 242.728C398.587 244.039 397.509 245.098 396.188 245.893C394.855 246.688 393.404 247.085 391.803 247.085H365.336C363.696 247.085 362.216 246.688 360.883 245.893Z" fill="white"/>
<path d="M407.356 247.085V203.303H442.596C444.233 203.303 445.713 203.7 447.033 204.494C448.366 205.289 449.432 206.349 450.243 207.686C451.058 209.024 451.471 210.494 451.471 212.07V223.631C451.471 225.22 451.058 226.664 450.243 227.988C449.432 229.312 448.351 230.358 447.033 231.153C445.7 231.948 444.221 232.345 442.596 232.345L416.179 232.411V247.085H407.356ZM416.552 223.525H442.167C442.288 223.525 442.381 223.499 442.447 223.432C442.515 223.366 442.54 223.3 442.54 223.22V212.44C442.54 212.321 442.515 212.228 442.447 212.162C442.381 212.096 442.288 212.07 442.167 212.07H416.552C416.433 212.07 416.34 212.096 416.272 212.162C416.207 212.228 416.179 212.321 416.179 212.44V223.22C416.179 223.3 416.207 223.366 416.272 223.432C416.34 223.499 416.418 223.525 416.552 223.525ZM442.033 247.085L428.988 231.616H440.57L451.35 244.343V247.085H442.033Z" fill="white"/>
<path d="M458.028 247.085V203.25H498.718V212.083H466.984V220.731H492.534V229.617H466.984V238.265H498.718V247.098H458.028V247.085Z" fill="white"/>
<path d="M513.482 247.085C511.884 247.085 510.417 246.688 509.072 245.893C507.726 245.098 506.661 244.052 505.887 242.728C505.113 241.404 504.728 239.933 504.728 238.318V234.61H513.55V237.894C513.55 238.013 513.575 238.106 513.643 238.172C513.708 238.239 513.777 238.265 513.854 238.265H539.526C539.603 238.265 539.684 238.239 539.765 238.172C539.843 238.106 539.883 238.013 539.883 237.894V229.922C539.883 229.842 539.843 229.776 539.765 229.71C539.684 229.644 539.603 229.617 539.526 229.617H513.482C511.884 229.617 510.417 229.22 509.072 228.425C507.726 227.631 506.661 226.571 505.887 225.233C505.113 223.896 504.728 222.439 504.728 220.85V212.017C504.728 210.388 505.113 208.918 505.887 207.607C506.661 206.283 507.726 205.236 509.072 204.442C510.417 203.647 511.884 203.25 513.482 203.25H540.017C541.617 203.25 543.068 203.647 544.401 204.442C545.735 205.236 546.8 206.296 547.615 207.607C548.426 208.931 548.839 210.401 548.839 212.017V215.725H539.899V212.441C539.899 212.321 539.858 212.229 539.777 212.163C539.697 212.096 539.619 212.07 539.538 212.07H513.87C513.789 212.07 513.708 212.096 513.656 212.163C513.603 212.229 513.562 212.321 513.562 212.441V220.413C513.562 220.493 513.59 220.572 513.656 220.625C513.724 220.678 513.789 220.718 513.87 220.718H540.029C541.63 220.718 543.084 221.115 544.414 221.91C545.747 222.704 546.813 223.764 547.627 225.101C548.441 226.439 548.854 227.909 548.854 229.485V238.318C548.854 239.947 548.441 241.417 547.627 242.728C546.813 244.039 545.735 245.098 544.414 245.893C543.084 246.688 541.63 247.085 540.029 247.085H513.482Z" fill="white"/>
<defs>
<linearGradient id="paint0_linear_1_120" x1="89.2065" y1="280.616" x2="89.2065" y2="218.535" gradientUnits="userSpaceOnUse">
<stop offset="0.0879" stop-color="#074783"/>
<stop offset="0.9221" stop-color="#2D81D6"/>
</linearGradient>
<linearGradient id="paint1_linear_1_120" x1="55.2338" y1="186.039" x2="123.181" y2="186.039" gradientUnits="userSpaceOnUse">
<stop offset="0.1935" stop-color="#074783"/>
<stop offset="0.9221" stop-color="#2D81D6"/>
</linearGradient>
<linearGradient id="paint2_linear_1_120" x1="55.2338" y1="159.701" x2="123.181" y2="159.701" gradientUnits="userSpaceOnUse">
<stop offset="0.1935" stop-color="#074783"/>
<stop offset="0.9221" stop-color="#2D81D6"/>
</linearGradient>
</defs>
</svg>
